docs/.gitbook/assets/icon-bolt-disabled-16@dark.svg

<svg width="32" height="32" viewBox="0 0 16 16" fill="none" xmlns="http://www.w3.org/2000/svg">
<rect x="0" y="0" width="16" height="16" fill="#181c1f"/>
<path fill-rule="evenodd" clip-rule="evenodd" d="M9.51215 1.0473C9.80551 1.15674 10 1.4369 10 1.75V7H13.25C13.5534 7 13.8268 7.18274 13.9429 7.46299C14.059 7.74325 13.9949 8.06584 13.7804 8.28033L11.2992 10.7615L13.8243 13.7676C14.0907 14.0848 14.0496 14.5579 13.7324 14.8243C13.4153 15.0907 12.9422 15.0496 12.6757 14.7324L2.17574 2.2324C1.90932 1.91523 1.95046 1.44214 2.26763 1.17573C2.58479 0.909307 3.05788 0.950445 3.3243 1.26761L5.95816 4.40315L8.68326 1.25881C8.88832 1.02219 9.21879 0.937871 9.51215 1.0473ZM6.93512 5.5662L8.50002 7.42918V3.76055L6.93512 5.5662ZM9.39951 8.5L10.3307 9.60862L11.4394 8.5H9.39951ZM4.78035 7.21967C5.07325 7.51257 5.07325 7.98744 4.78035 8.28033L4.56068 8.5H5.75002C6.16424 8.5 6.50002 8.83579 6.50002 9.25V12.4393L6.71579 12.2236C7.00868 11.9307 7.48355 11.9307 7.77645 12.2236C8.06934 12.5165 8.06934 12.9913 7.77645 13.2842L6.28035 14.7803C6.06585 14.9948 5.74327 15.059 5.46301 14.9429C5.18275 14.8268 5.00002 14.5534 5.00002 14.25V10H2.75002C2.44668 10 2.1732 9.81727 2.05711 9.53702C1.94103 9.25676 2.00519 8.93417 2.21969 8.71967L3.71969 7.21967C4.01259 6.92678 4.48746 6.92678 4.78035 7.21967Z" fill="#fff"/>
</svg>

<svg xmlns="http://www.w3.org/2000/svg" width="32" height="32" fill="none" viewBox="0 0 16 16"><path fill="#181c1f" d="M0 0h16v16H0z"/><path fill="#fff" fill-rule="evenodd" d="M9.512 1.047A.75.75 0 0 1 10 1.75V7h3.25a.75.75 0 0 1 .53 1.28l-2.48 2.482 2.524 3.006a.75.75 0 1 1-1.148.964l-10.5-12.5a.75.75 0 1 1 1.148-.964l2.634 3.135L8.683 1.26a.75.75 0 0 1 .83-.212m-2.577 4.52L8.5 7.428V3.761zM9.4 8.5l.93 1.109L11.44 8.5zM4.78 7.22a.75.75 0 0 1 0 1.06l-.22.22h1.19a.75.75 0 0 1 .75.75v3.19l.216-.216a.75.75 0 0 1 1.06 1.06L6.28 14.78A.75.75 0 0 1 5 14.25V10H2.75a.75.75 0 0 1-.53-1.28l1.5-1.5a.75.75 0 0 1 1.06 0" clip-rule="evenodd"/></svg>
